client/src/assets/images/icon-socialhistory-grey.svg

<svg viewBox="0 0 92 92" xmlns="http://www.w3.org/2000/svg"><g fill="#808080"><path d="m68.17 21.08h-11.71v-1.36a.75.75 0 0 0 -.75-.75h-4.44a5.4 5.4 0 0 0 -10.54 0h-4.44a.75.75 0 0 0 -.75.75v1.36h-11.71a.76.76 0 0 0 -.75.75v50.67a.76.76 0 0 0 .75.75h44.34a.76.76 0 0 0 .75-.75v-50.67a.76.76 0 0 0 -.75-.75zm-31.17-.61h4.34a.74.74 0 0 0 .74-.68 3.9 3.9 0 0 1 7.76 0 .73.73 0 0 0 .74.68h4.42v7.26h-18zm18.67 8.76a.75.75 0 0 0 .75-.75v-1.36h5.89v40.41h-32.66v-40.41h5.89v1.36a.75.75 0 0 0 .75.75zm11.75 42.52h-42.84v-49.17h11v3h-6.68a.75.75 0 0 0 -.75.75v41.95a.76.76 0 0 0 .75.75h34.2a.76.76 0 0 0 .75-.75v-41.91a.75.75 0 0 0 -.75-.75h-6.64v-3h11z"/><path d="m46.12 46a4.82 4.82 0 1 0 -4.82-4.81 4.83 4.83 0 0 0 4.82 4.81zm0-8.43a3.62 3.62 0 1 1 -3.62 3.62 3.63 3.63 0 0 1 3.62-3.67z"/><path d="m37.44 57.32h17.12a.59.59 0 0 0 .59-.6v-6.09a4.82 4.82 0 0 0 -4.81-4.82.63.63 0 0 0 -.43.17 4.79 4.79 0 0 1 -1.84 1.18 4.59 4.59 0 0 1 -2.07.41 5 5 0 0 1 -2.08-.41 6.84 6.84 0 0 1 -1.83-1.16.61.61 0 0 0 -.43-.17 4.82 4.82 0 0 0 -4.81 4.82v6.09a.59.59 0 0 0 .59.58zm.6-6.69a3.58 3.58 0 0 1 3.39-3.63 9 9 0 0 0 2 1.23 6.23 6.23 0 0 0 2.58.52 5.66 5.66 0 0 0 2.53-.5 5.9 5.9 0 0 0 2-1.25 3.57 3.57 0 0 1 3.46 3.63v5.49h-3v-3.27a.6.6 0 0 0 -1.2 0v3.27h-7.42v-3.27a.59.59 0 0 0 -.59-.59.61.61 0 0 0 -.61.58l-.1 3.28h-3.08z"/></g></svg>

<svg xmlns="http://www.w3.org/2000/svg" viewBox="0 0 92 92"><defs><style>.cls-1{fill:gray;}</style></defs><title>socialhistory</title><g id="Content"><path class="cls-1" d="M68.17,21.08H56.46V19.72a.75.75,0,0,0-.75-.75H51.27a5.4,5.4,0,0,0-10.54,0H36.29a.75.75,0,0,0-.75.75v1.36H23.83a.76.76,0,0,0-.75.75V72.5a.76.76,0,0,0,.75.75H68.17a.76.76,0,0,0,.75-.75V21.83A.76.76,0,0,0,68.17,21.08ZM37,20.47h4.34a.74.74,0,0,0,.74-.68,3.9,3.9,0,0,1,7.76,0,.73.73,0,0,0,.74.68H55v7.26H37Zm18.67,8.76a.75.75,0,0,0,.75-.75V27.12h5.89V67.53H29.65V27.12h5.89v1.36a.75.75,0,0,0,.75.75ZM67.42,71.75H24.58V22.58h11v3H28.9a.75.75,0,0,0-.75.75V68.28a.76.76,0,0,0,.75.75H63.1a.76.76,0,0,0,.75-.75V26.37a.75.75,0,0,0-.75-.75H56.46v-3h11Z"/><path class="cls-1" d="M46.12,46a4.82,4.82,0,1,0-4.82-4.81A4.83,4.83,0,0,0,46.12,46Zm0-8.43a3.62,3.62,0,1,1-3.62,3.62A3.63,3.63,0,0,1,46.12,37.52Z"/><path class="cls-1" d="M37.44,57.32H54.56a.59.59,0,0,0,.59-.6V50.63a4.82,4.82,0,0,0-4.81-4.82.63.63,0,0,0-.43.17,4.79,4.79,0,0,1-1.84,1.18,4.59,4.59,0,0,1-2.07.41,5,5,0,0,1-2.08-.41A6.84,6.84,0,0,1,42.09,46a.61.61,0,0,0-.43-.17,4.82,4.82,0,0,0-4.81,4.82v6.09A.59.59,0,0,0,37.44,57.32Zm.6-6.69A3.58,3.58,0,0,1,41.43,47a9,9,0,0,0,2,1.23,6.23,6.23,0,0,0,2.58.52,5.66,5.66,0,0,0,2.53-.5,5.9,5.9,0,0,0,2-1.25A3.57,3.57,0,0,1,54,50.63v5.49h-3V52.85a.6.6,0,0,0-1.2,0v3.27H42.38V52.85a.59.59,0,0,0-.59-.59.61.61,0,0,0-.61.58l-.1,3.28H38Z"/></g></svg>
